source/img/icon-burger.svg

<svg width="40" height="35" viewBox="0 0 40 35" fill="none" xmlns="http://www.w3.org/2000/svg">
<path d="M37.7428 23.3004H2.25722C0.997375 23.3004 0 24.3135 0 25.4785V27.2514C0 28.4164 0.997375 29.3788 2.25722 29.3788H2.78215V29.8853C2.78215 32.6712 5.14436 34.9 7.979 34.9H32.021C34.9081 34.9 37.2178 32.6206 37.2178 29.8853V29.3788H37.7428C38.9501 29.3788 40 28.4164 40 27.2007V25.4278C40 24.3135 39.0026 23.3004 37.7428 23.3004ZM35.6955 29.8853C35.6955 31.8101 34.0682 33.3804 32.0735 33.3804H7.92651C5.93176 33.3804 4.30446 31.8101 4.30446 29.8853V29.3788H35.6955V29.8853ZM38.4252 27.2007C38.4252 27.5553 38.1102 27.8592 37.7428 27.8592H2.25722C1.88976 27.8592 1.5748 27.5553 1.5748 27.2007V25.4278C1.5748 25.1239 1.88976 24.82 2.25722 24.82H37.7953C38.1627 24.82 38.4777 25.1239 38.4777 25.4785V27.2007H38.4252Z" fill="#81B3D2"/>
<path d="M8.50395 19.1973L11.3386 21.2234L14.2257 19.1973L17.1129 21.2234L20 19.1973L22.8347 21.2234L25.7218 19.1973L28.6089 21.2234L31.4961 19.1973L34.3832 21.2234L37.6903 18.8427L36.7979 17.627L34.3832 19.2986L31.4961 17.2725L28.6089 19.2986L25.7218 17.2725L22.8347 19.2986L20 17.2725L17.1129 19.2986L14.2257 17.2725L11.3386 19.2986L8.50395 17.2725L5.61682 19.2986L3.20212 17.627L2.25723 18.8427L5.61682 21.2234L8.50395 19.1973Z" fill="#81B3D2"/>
<path d="M37.2179 15.7531C37.2179 15.4492 37.2704 14.4361 37.2179 14.2335C36.8504 6.33164 29.2913 0 20 0C10.7087 0 3.09712 6.33164 2.72967 14.2335C2.72967 14.4361 2.72967 15.4492 2.72967 15.7531H37.2179ZM20 1.51959C28.399 1.51959 35.3281 7.19274 35.6431 14.2335H4.30447C4.67193 7.19274 11.6011 1.51959 20 1.51959Z" fill="#81B3D2"/>
<path d="M20 8.61109C20.5798 8.61109 21.0499 8.15752 21.0499 7.59802C21.0499 7.03852 20.5798 6.58496 20 6.58496C19.4202 6.58496 18.9501 7.03852 18.9501 7.59802C18.9501 8.15752 19.4202 8.61109 20 8.61109Z" fill="#81B3D2"/>
<path d="M15.8005 6.12866C16.3803 6.12866 16.8504 5.6751 16.8504 5.1156C16.8504 4.5561 16.3803 4.10254 15.8005 4.10254C15.2207 4.10254 14.7506 4.5561 14.7506 5.1156C14.7506 5.6751 15.2207 6.12866 15.8005 6.12866Z" fill="#81B3D2"/>
<path d="M24.1995 6.12866C24.7793 6.12866 25.2493 5.6751 25.2493 5.1156C25.2493 4.5561 24.7793 4.10254 24.1995 4.10254C23.6196 4.10254 23.1496 4.5561 23.1496 5.1156C23.1496 5.6751 23.6196 6.12866 24.1995 6.12866Z" fill="#81B3D2"/>
</svg>

<svg width="40" height="35" fill="none" xmlns="http://www.w3.org/2000/svg">
  <path d="M37.7 23.3H2.3c-1.3 0-2.3 1-2.3 2.2v1.8c0 1.1 1 2 2.3 2h.5v.6a5 5 0 0 0 5.2 5h24a5 5 0 0 0 5.2-5v-.5h.5c1.3 0 2.3-1 2.3-2.2v-1.8c0-1-1-2.1-2.3-2.1zm-2 6.6c0 2-1.6 3.5-3.6 3.5H7.9c-2 0-3.6-1.6-3.6-3.5v-.5h31.4v.5zm2.7-2.7c0 .4-.3.7-.7.7H2.3a.7.7 0 0 1-.7-.7v-1.8c0-.3.3-.6.7-.6h35.5c.4 0 .7.3.7.7v1.7zm-29.9-8l2.8 2 3-2 2.8 2 2.9-2 2.8 2 3-2 2.8 2 2.9-2 2.9 2 3.3-2.4-.9-1.2-2.4 1.7-2.9-2-2.9 2-2.9-2-2.9 2-2.8-2-2.9 2-2.9-2-2.9 2-2.8-2-2.9 2-2.4-1.7-1 1.2 3.4 2.4 2.9-2zm28.7-3.4v-1.6C37 6.3 29.2 0 20 0 10.7 0 3.1 6.3 2.7 14.2v1.6h34.5zM20 1.5c8.4 0 15.3 5.7 15.6 12.7H4.3c.4-7 7.3-12.7 15.7-12.7z" fill="#81B3D2"/>
  <path d="M20 8.6c.6 0 1-.4 1-1s-.4-1-1-1a1 1 0 0 0-1 1c0 .6.4 1 1 1zm-4.2-2.5c.6 0 1-.4 1-1 0-.5-.4-1-1-1a1 1 0 0 0-1 1c0 .6.4 1 1 1zm8.4 0c.6 0 1-.4 1-1 0-.5-.4-1-1-1a1 1 0 0 0-1 1c0 .6.4 1 1 1z" fill="#81B3D2"/>
</svg>
